images/partners/parters-9.svg

<svg width="150" height="150" viewBox="0 0 150 150" fill="none" xmlns="http://www.w3.org/2000/svg">
<path d="M108.519 46.0334H118.72L111.239 73.5742H101.379L108.519 46.0334Z" fill="#3E3B46"/>
<path d="M39.1577 76.2942H49.358L42.2178 103.155H32.3575L39.1577 76.2942Z" fill="#3E3B46"/>
<path d="M129.259 57.2534H139.46L129.94 92.2744H120.079L129.259 57.2534Z" fill="#5A585C"/>
<path d="M15.6957 76.2937H25.896L21.4759 92.2742H11.6156L15.6957 76.2937Z" fill="#5A585C"/>
<path d="M139.799 63.0337H150L143.54 86.4944H133.679L139.799 63.0337Z" fill="#5A585C"/>
<path d="M7.19659 63.0337H17.3969L10.9367 86.4944H1.07642L7.19659 63.0337Z" fill="#5A585C"/>
<path d="M118.721 52.1533H128.921L116.681 97.3746H106.821L118.721 52.1533Z" fill="#5A585C"/>
<path d="M27.2561 76.2942H37.4564L32.0162 97.7148H21.8159L27.2561 76.2942Z" fill="#5A585C"/>
<path d="M51.398 75.9539H110.56L106.14 92.6143H47.3179L51.398 75.9539Z" fill="#D81D16"/>
<path d="M47.7721 96.4523L47.5272 97.6768H49.6783L49.4996 98.5373H47.3617L47.0242 100.225H45.9453L46.872 95.5919H50.3733L50.1946 96.4523H47.7721Z" fill="white"/>
<path d="M51.1654 95.5919H52.2443L51.3176 100.225H50.2388L51.1654 95.5919Z" fill="white"/>
<path d="M54.1844 96.4656H52.7018L52.8805 95.5919H56.918L56.7393 96.4656H55.2633L54.5088 100.225H53.4365L54.1844 96.4656Z" fill="white"/>
<path d="M61.8104 95.5919L60.8838 100.225H60.0035L58.276 97.326L57.6935 100.225H56.6345L57.5611 95.5919H58.4481L60.1756 98.4976L60.7514 95.5919H61.8104Z" fill="white"/>
<path d="M63.8664 96.4523L63.6678 97.4584H65.8189L65.6535 98.2924H63.4957L63.2839 99.3646H65.8123L65.6336 100.225H62.0462L62.9728 95.5919H66.4742L66.2955 96.4523H63.8664Z" fill="white"/>
<path d="M68.168 100.305C67.8017 100.305 67.4509 100.256 67.1156 100.159C66.7802 100.062 66.511 99.9383 66.3081 99.7882L66.7449 98.9609C66.9567 99.1153 67.195 99.2345 67.4597 99.3183C67.7245 99.4021 67.9959 99.4441 68.2739 99.4441C68.5695 99.4441 68.8034 99.3955 68.9755 99.2984C69.1475 99.2014 69.2336 99.069 69.2336 98.9013C69.2336 98.7645 69.1652 98.6608 69.0284 98.5902C68.8916 98.5152 68.6732 98.4358 68.3731 98.3519C68.0731 98.2637 67.8282 98.1799 67.6384 98.1004C67.4487 98.0166 67.2832 97.893 67.142 97.7298C67.0052 97.5665 66.9368 97.3503 66.9368 97.0811C66.9368 96.7678 67.0229 96.492 67.195 96.2538C67.3715 96.0155 67.6186 95.8324 67.9363 95.7044C68.2584 95.5764 68.6313 95.5125 69.0549 95.5125C69.3682 95.5125 69.6638 95.5478 69.9418 95.6184C70.2198 95.6845 70.4581 95.7816 70.6566 95.9096L70.2529 96.7303C70.0808 96.6112 69.8867 96.5229 69.6704 96.4656C69.4542 96.4038 69.2292 96.3729 68.9953 96.3729C68.6908 96.3729 68.4504 96.4259 68.2739 96.5318C68.0974 96.6377 68.0091 96.7744 68.0091 96.9421C68.0091 97.0436 68.0466 97.1297 68.1216 97.2003C68.1966 97.2664 68.2915 97.3216 68.4062 97.3657C68.521 97.4054 68.682 97.454 68.8894 97.5113C69.1851 97.5908 69.4277 97.6724 69.6175 97.7562C69.8072 97.8357 69.9683 97.9548 70.1007 98.1137C70.2374 98.2681 70.3058 98.4733 70.3058 98.7292C70.3058 99.0469 70.2176 99.3249 70.0411 99.5632C69.8646 99.7971 69.6153 99.9802 69.2932 100.113C68.971 100.241 68.596 100.305 68.168 100.305Z" fill="white"/>
<path d="M72.455 100.305C72.0887 100.305 71.7379 100.256 71.4026 100.159C71.0672 100.062 70.798 99.9383 70.5951 99.7882L71.0319 98.9609C71.2437 99.1153 71.482 99.2345 71.7467 99.3183C72.0115 99.4021 72.2829 99.4441 72.5609 99.4441C72.8565 99.4441 73.0904 99.3955 73.2625 99.2984C73.4345 99.2014 73.5206 99.069 73.5206 98.9013C73.5206 98.7645 73.4522 98.6608 73.3154 98.5902C73.1786 98.5152 72.9602 98.4358 72.6601 98.3519C72.3601 98.2637 72.1152 98.1799 71.9254 98.1004C71.7357 98.0166 71.5702 97.893 71.429 97.7298C71.2922 97.5665 71.2238 97.3503 71.2238 97.0811C71.2238 96.7678 71.3099 96.492 71.482 96.2538C71.6585 96.0155 71.9056 95.8324 72.2233 95.7044C72.5454 95.5764 72.9183 95.5125 73.3419 95.5125C73.6552 95.5125 73.9508 95.5478 74.2288 95.6184C74.5068 95.6845 74.7451 95.7816 74.9436 95.9096L74.5399 96.7303C74.3678 96.6112 74.1737 96.5229 73.9574 96.4656C73.7412 96.4038 73.5162 96.3729 73.2823 96.3729C72.9778 96.3729 72.7374 96.4259 72.5609 96.5318C72.3844 96.6377 72.2961 96.7744 72.2961 96.9421C72.2961 97.0436 72.3336 97.1297 72.4086 97.2003C72.4836 97.2664 72.5785 97.3216 72.6932 97.3657C72.808 97.4054 72.969 97.454 73.1764 97.5113C73.4721 97.5908 73.7147 97.6724 73.9045 97.7562C74.0942 97.8357 74.2553 97.9548 74.3877 98.1137C74.5244 98.2681 74.5928 98.4733 74.5928 98.7292C74.5928 99.0469 74.5046 99.3249 74.3281 99.5632C74.1516 99.7971 73.9023 99.9802 73.5802 100.113C73.258 100.241 72.883 100.305 72.455 100.305Z" fill="white"/>
<path d="M79.5034 100.305C79.04 100.305 78.6341 100.221 78.2855 100.053C77.9413 99.8853 77.6766 99.6492 77.4912 99.3448C77.3059 99.0403 77.2132 98.6895 77.2132 98.2924C77.2132 97.7673 77.3324 97.2951 77.5707 96.8759C77.8133 96.4523 78.1531 96.1192 78.59 95.8765C79.0268 95.6338 79.5276 95.5125 80.0924 95.5125C80.5072 95.5125 80.8735 95.5831 81.1912 95.7243C81.5089 95.8655 81.7494 96.0684 81.9126 96.3332L81.1382 96.9686C80.8911 96.6068 80.5183 96.4259 80.0196 96.4259C79.6799 96.4259 79.3798 96.5053 79.1195 96.6641C78.8591 96.823 78.6561 97.0392 78.5105 97.3128C78.3693 97.5864 78.2987 97.8908 78.2987 98.2262C78.2987 98.5836 78.4113 98.8682 78.6363 99.08C78.8657 99.2874 79.1857 99.3911 79.596 99.3911C80.0858 99.3911 80.4962 99.2124 80.8271 98.855L81.4625 99.5036C81.0036 100.038 80.3506 100.305 79.5034 100.305Z" fill="white"/>
<path d="M82.9147 95.5919H83.9936L83.239 99.3514H85.5622L85.3835 100.225H81.9881L82.9147 95.5919Z" fill="white"/>
<path d="M88.1749 100.305C87.5924 100.305 87.1357 100.161 86.8048 99.8743C86.4738 99.583 86.3084 99.1859 86.3084 98.6829C86.3084 98.5373 86.326 98.3718 86.3613 98.1865L86.8776 95.5919H87.9565L87.4402 98.1666C87.4137 98.3122 87.4005 98.4424 87.4005 98.5571C87.4005 98.8351 87.4755 99.0447 87.6255 99.1859C87.78 99.3227 88.0028 99.3911 88.294 99.3911C88.6206 99.3911 88.8809 99.294 89.0751 99.0999C89.2692 98.9057 89.4104 98.5946 89.4987 98.1666L90.0149 95.5919H91.0673L90.5444 98.2328C90.262 99.6139 89.4722 100.305 88.1749 100.305Z" fill="white"/>
<path d="M95.165 97.8357C95.3635 97.9151 95.5158 98.0342 95.6217 98.1931C95.732 98.3475 95.7871 98.5373 95.7871 98.7623C95.7871 99.2433 95.5974 99.6073 95.2179 99.8544C94.8384 100.102 94.3332 100.225 93.7022 100.225H91.2731L92.1997 95.5919H94.4369C94.9355 95.5919 95.3194 95.6845 95.5886 95.8699C95.8577 96.0508 95.9923 96.3111 95.9923 96.6509C95.9923 96.9333 95.9173 97.176 95.7673 97.379C95.6217 97.5775 95.4209 97.7298 95.165 97.8357ZM93.0999 96.3994L92.8815 97.4915H93.9736C94.256 97.4915 94.4744 97.4363 94.6288 97.326C94.7877 97.2113 94.8671 97.048 94.8671 96.8362C94.8671 96.545 94.6399 96.3994 94.1854 96.3994H93.0999ZM93.7684 99.4176C94.0684 99.4176 94.3023 99.3602 94.47 99.2455C94.6377 99.1308 94.7215 98.9653 94.7215 98.7491C94.7215 98.4314 94.4898 98.2725 94.0265 98.2725H92.7292L92.5042 99.4176H93.7684Z" fill="white"/>
<path d="M26.793 58.3758C28.7288 58.3758 30.229 58.7975 31.2937 59.641C32.3584 60.4844 32.8907 61.6666 32.8907 63.1876C32.8907 64.4044 32.5865 65.476 31.9781 66.4024C31.3836 67.3288 30.5263 68.0478 29.4063 68.5594C28.3001 69.071 27.0142 69.3268 25.5485 69.3268H23.0389L22.3337 72.8942H17.439L20.3426 58.3758H26.793ZM25.7974 65.552C26.475 65.552 27.0004 65.3861 27.3737 65.0543C27.747 64.7086 27.9337 64.2316 27.9337 63.6232C27.9337 62.6414 27.3253 62.1506 26.1085 62.1506H24.47L23.7856 65.552H25.7974Z" fill="#D81D16"/>
<path d="M40.1948 73.2261C38.7153 73.2261 37.4156 72.9564 36.2956 72.4172C35.1894 71.8641 34.3321 71.0967 33.7237 70.115C33.1292 69.1332 32.8319 68.0063 32.8319 66.7343C32.8319 65.0474 33.219 63.5471 33.9934 62.2335C34.7815 60.9061 35.8669 59.876 37.2496 59.1432C38.6462 58.4104 40.2225 58.0439 41.9785 58.0439C43.458 58.0439 44.7508 58.3205 45.857 58.8736C46.977 59.4128 47.8343 60.1733 48.4288 61.155C49.0372 62.1368 49.3414 63.2637 49.3414 64.5358C49.3414 66.2227 48.9473 67.7298 48.1592 69.0572C47.3849 70.3708 46.2995 71.394 44.9029 72.1268C43.5202 72.8596 41.9508 73.2261 40.1948 73.2261ZM40.6096 69.2646C41.3839 69.2646 42.0545 69.0641 42.6215 68.6631C43.2022 68.2621 43.6447 67.7229 43.9489 67.0454C44.253 66.3678 44.4051 65.6281 44.4051 64.8261C44.4051 63.9688 44.1493 63.2844 43.6377 62.7728C43.14 62.2612 42.4486 62.0054 41.5637 62.0054C40.7894 62.0054 40.1118 62.2059 39.5311 62.6069C38.9642 63.0079 38.5286 63.5471 38.2244 64.2246C37.9203 64.9022 37.7682 65.6419 37.7682 66.4439C37.7682 67.3012 38.017 67.9856 38.5148 68.4972C39.0264 69.0088 39.7247 69.2646 40.6096 69.2646Z" fill="#D81D16"/>
<path d="M74.7749 58.3758L67.2253 72.8942H61.9779L61.1483 65.2409L57.1661 72.8942H51.9187L50.1765 58.3758H55.0091L55.9424 66.6513L60.2565 58.3758H64.7572L65.5868 66.7757L69.9631 58.3758H74.7749Z" fill="#D81D16"/>
<path d="M79.0974 62.0676L78.7655 63.7683H84.9047L84.1995 67.2942H78.0396L77.6663 69.2024H84.9462L84.1995 72.8942H72.1285L75.0322 58.3758H86.8336L86.0869 62.0676H79.0974Z" fill="#D81D16"/>
<path d="M100.706 63.1461C100.706 64.432 100.36 65.559 99.669 66.5268C98.9914 67.4809 98.0304 68.193 96.786 68.6631L99.2127 72.8942H94.1312L92.0779 69.2439H90.8749L90.149 72.8942H85.2542L88.1579 58.3758H94.6705C96.5786 58.3758 98.0581 58.7975 99.109 59.641C100.174 60.4706 100.706 61.639 100.706 63.1461ZM95.749 63.6232C95.749 62.6414 95.1406 62.1506 93.9238 62.1506H92.2853L91.6009 65.552H93.6127C94.2902 65.552 94.8157 65.3861 95.189 65.0543C95.5623 64.7086 95.749 64.2316 95.749 63.6232Z" fill="#D81D16"/>
<path d="M62.9176 83.9411H67.1694L65.9249 90.2048C65.1506 90.7579 64.2588 91.1865 63.2494 91.4907C62.2539 91.7811 61.1823 91.9263 60.0346 91.9263C58.5551 91.9263 57.2485 91.6566 56.1146 91.1174C54.9947 90.5643 54.1235 89.7969 53.5013 88.8152C52.8929 87.8334 52.5887 86.7065 52.5887 85.4344C52.5887 83.7475 52.9828 82.2473 53.771 80.9337C54.5591 79.6202 55.6584 78.597 57.0687 77.8641C58.4791 77.1175 60.0968 76.7441 61.922 76.7441C64.9363 76.7441 67.1348 77.6913 68.5175 79.5856L65.0124 82.3026C64.5561 81.7219 64.0652 81.314 63.5398 81.0789C63.0143 80.83 62.399 80.7056 61.6939 80.7056C60.8504 80.7056 60.1107 80.8923 59.4746 81.2656C58.8524 81.6389 58.3685 82.1643 58.0228 82.8419C57.6909 83.5056 57.525 84.2661 57.525 85.1233C57.525 85.9806 57.8085 86.672 58.3754 87.1974C58.9423 87.709 59.7235 87.9648 60.7191 87.9648C61.2168 87.9648 61.6939 87.8957 62.1502 87.7574L62.9176 83.9411Z" fill="white"/>
<path d="M77.5927 86.3263L76.5556 91.5944H71.6609L72.7186 86.2641L69.089 77.076H74.0045L75.9749 82.0952L80.0193 77.076H84.9348L77.5927 86.3263Z" fill="white"/>
<path d="M103.144 77.076L100.282 91.5944H95.8228L97.1088 84.9782L93.0229 90.2877H90.8658L88.6259 85.0611L87.3192 91.5944H82.86L85.7636 77.076H89.7458L92.8984 84.7915L98.9754 77.076H103.144Z" fill="white"/>
</svg>

<svg width="150" height="150" fill="none" xmlns="http://www.w3.org/2000/svg"><path d="M108.519 46.033h10.201l-7.481 27.541h-9.86l7.14-27.54zM39.158 76.294h10.2l-7.14 26.861h-9.86l6.8-26.86z" fill="#3E3B46"/><path d="M129.259 57.253h10.201l-9.52 35.021h-9.861l9.18-35.02zM15.696 76.294h10.2l-4.42 15.98h-9.86l4.08-15.98zm124.103-13.26H150l-6.46 23.46h-9.861l6.12-23.46zm-132.602 0h10.2l-6.46 23.46h-9.86l6.12-23.46zm111.524-10.881h10.2l-12.24 45.222h-9.86l11.9-45.222zM27.256 76.294h10.2l-5.44 21.42h-10.2l5.44-21.42z" fill="#5A585C"/><path d="M51.398 75.954h59.162l-4.42 16.66H47.318l4.08-16.66z" fill="#D81D16"/><path d="M47.772 96.452l-.245 1.225h2.151l-.178.86h-2.138l-.338 1.688h-1.079l.927-4.633h3.501l-.178.86h-2.423zm3.393-.86h1.08l-.927 4.633h-1.08l.927-4.633zm3.019.874h-1.482l.178-.874h4.038l-.179.874h-1.476l-.754 3.759h-1.072l.747-3.76zm7.626-.874l-.926 4.633h-.88l-1.728-2.899-.583 2.899h-1.058l.926-4.633h.887l1.728 2.906.575-2.906h1.06zm2.056.86l-.198 1.006h2.15l-.165.834h-2.157l-.212 1.073h2.528l-.178.86h-3.588l.927-4.633h3.501l-.178.86h-2.43zm4.302 3.853c-.366 0-.717-.049-1.052-.146-.336-.097-.605-.22-.808-.37l.437-.828c.212.154.45.273.715.357.265.084.536.126.814.126.296 0 .53-.049.701-.146.172-.097.259-.229.259-.397 0-.136-.069-.24-.206-.31a3.329 3.329 0 00-.655-.24 7.247 7.247 0 01-.735-.25 1.398 1.398 0 01-.496-.371c-.137-.163-.205-.38-.205-.649 0-.313.086-.589.258-.827.177-.239.424-.422.741-.55a3.015 3.015 0 011.119-.191c.313 0 .609.035.887.105.278.067.516.164.715.292l-.404.82a1.844 1.844 0 00-.583-.264 2.444 2.444 0 00-.675-.093c-.304 0-.545.053-.721.159-.177.106-.265.242-.265.41a.34.34 0 00.113.258c.075.066.17.122.284.166.115.04.276.088.483.145.296.08.539.161.729.245.19.08.35.199.483.358.136.154.205.36.205.615 0 .318-.088.596-.265.834a1.74 1.74 0 01-.748.55 3.035 3.035 0 01-1.125.192zm4.287 0c-.366 0-.717-.049-1.052-.146-.336-.097-.605-.22-.808-.37l.437-.828c.212.154.45.273.715.357.264.084.536.126.814.126.295 0 .53-.049.701-.146.172-.097.259-.229.259-.397 0-.136-.069-.24-.206-.31a3.329 3.329 0 00-.655-.24 7.247 7.247 0 01-.735-.25 1.398 1.398 0 01-.496-.371c-.137-.163-.205-.38-.205-.649 0-.313.086-.589.258-.827.177-.239.424-.422.741-.55a3.015 3.015 0 011.119-.191c.313 0 .609.035.887.105.278.067.516.164.715.292l-.404.82a1.844 1.844 0 00-.583-.264 2.444 2.444 0 00-.675-.093c-.304 0-.545.053-.721.159-.177.106-.265.242-.265.41a.34.34 0 00.113.258c.075.066.17.122.284.166.115.04.276.088.483.145.296.08.539.161.728.245.19.08.351.199.484.358.136.154.205.36.205.615 0 .318-.088.596-.265.834a1.74 1.74 0 01-.748.55 3.035 3.035 0 01-1.125.192zm7.048 0c-.463 0-.869-.084-1.218-.252a1.856 1.856 0 01-.794-.708 1.984 1.984 0 01-.278-1.053c0-.525.12-.997.358-1.416a2.61 2.61 0 011.019-1c.437-.242.938-.364 1.502-.364.415 0 .782.071 1.1.212.317.141.557.344.72.61l-.774.635c-.247-.362-.62-.543-1.118-.543-.34 0-.64.08-.9.238-.26.159-.464.375-.61.649a1.962 1.962 0 00-.211.913c0 .358.112.642.337.854.23.207.55.311.96.311.49 0 .9-.179 1.231-.536l.636.649c-.46.534-1.112.801-1.96.801zm3.412-4.713h1.079l-.755 3.76h2.323l-.178.873h-3.396l.927-4.633zm5.26 4.713c-.583 0-1.04-.144-1.37-.43-.331-.292-.497-.69-.497-1.192 0-.146.018-.311.053-.497l.517-2.594h1.079l-.517 2.575c-.026.145-.04.275-.04.39 0 .278.075.488.225.629.155.137.378.205.669.205.327 0 .587-.097.781-.291.194-.194.335-.505.424-.933l.516-2.575h1.052l-.523 2.64c-.282 1.382-1.072 2.073-2.37 2.073zm6.99-2.469a.954.954 0 01.622.927c0 .48-.19.844-.57 1.091-.379.248-.884.371-1.515.371h-2.429l.927-4.633h2.237c.499 0 .882.093 1.152.278.269.18.403.441.403.78 0 .283-.075.526-.225.729-.145.198-.346.35-.602.457zM93.1 96.399l-.218 1.093h1.092c.282 0 .5-.056.655-.166a.568.568 0 00.238-.49c0-.291-.227-.437-.682-.437H93.1zm.668 3.019c.3 0 .534-.058.702-.172a.565.565 0 00.252-.497c0-.318-.232-.477-.695-.477h-1.298l-.225 1.146h1.264z" fill="#fff"/><path d="M26.793 58.376c1.936 0 3.436.422 4.5 1.265 1.065.843 1.598 2.026 1.598 3.547 0 1.216-.304 2.288-.913 3.214-.594.927-1.452 1.646-2.572 2.157-1.106.512-2.392.768-3.857.768h-2.51l-.705 3.567h-4.895l2.904-14.518h6.45zm-.996 7.176c.678 0 1.203-.166 1.577-.498.373-.345.56-.822.56-1.43 0-.983-.609-1.473-1.826-1.473H24.47l-.684 3.401h2.011zm14.398 7.674c-1.48 0-2.78-.27-3.9-.809-1.106-.553-1.963-1.32-2.571-2.302-.595-.982-.892-2.109-.892-3.38 0-1.688.387-3.188 1.161-4.502a8.149 8.149 0 013.257-3.09c1.396-.733 2.972-1.1 4.728-1.1 1.48 0 2.773.278 3.879.83 1.12.54 1.977 1.3 2.572 2.282.608.982.912 2.109.912 3.38 0 1.688-.394 3.195-1.182 4.522-.774 1.314-1.86 2.337-3.256 3.07-1.383.733-2.952 1.1-4.708 1.1zm.415-3.961c.774 0 1.444-.2 2.011-.602a3.823 3.823 0 001.328-1.618 5.357 5.357 0 00.456-2.219c0-.857-.256-1.542-.767-2.053-.498-.512-1.19-.768-2.074-.768-.775 0-1.452.2-2.033.602a3.882 3.882 0 00-1.307 1.618 5.357 5.357 0 00-.456 2.219c0 .857.249 1.542.747 2.053.511.512 1.21.768 2.095.768zm34.165-10.889l-7.55 14.518h-5.247l-.83-7.653-3.982 7.653H51.92l-1.742-14.518h4.832l.933 8.275 4.315-8.275h4.5l.83 8.4 4.376-8.4h4.812zm4.322 3.692l-.331 1.7h6.139l-.706 3.526h-6.16l-.373 1.908h7.28l-.746 3.692H72.127l2.904-14.518h11.802l-.747 3.692h-6.99zm21.609 1.078c0 1.286-.346 2.413-1.037 3.38-.678.955-1.639 1.667-2.883 2.137l2.427 4.231H94.13l-2.053-3.65h-1.203l-.726 3.65h-4.895l2.904-14.518h6.513c1.908 0 3.387.422 4.438 1.265 1.065.83 1.597 1.998 1.597 3.505zm-4.957.477c0-.982-.608-1.472-1.825-1.472h-1.639l-.684 3.401h2.012c.677 0 1.203-.166 1.576-.498.373-.345.56-.822.56-1.43z" fill="#D81D16"/><path d="M62.918 83.941h4.251l-1.244 6.264c-.774.553-1.666.981-2.676 1.286-.995.29-2.067.435-3.214.435-1.48 0-2.786-.27-3.92-.809-1.12-.553-1.992-1.32-2.614-2.302-.608-.982-.912-2.108-.912-3.38 0-1.688.394-3.188 1.182-4.501.788-1.314 1.887-2.337 3.298-3.07 1.41-.746 3.028-1.12 4.853-1.12 3.014 0 5.213.947 6.596 2.842l-3.506 2.717c-.456-.581-.947-.989-1.472-1.224-.526-.249-1.141-.373-1.846-.373-.844 0-1.583.186-2.22.56a3.814 3.814 0 00-1.451 1.576c-.332.664-.498 1.424-.498 2.281 0 .858.284 1.549.85 2.074.567.512 1.349.768 2.344.768.498 0 .975-.07 1.431-.208l.768-3.816zm14.675 2.385l-1.037 5.268H71.66l1.058-5.33-3.63-9.188h4.915l1.97 5.02 4.045-5.02h4.916l-7.342 9.25zm25.551-9.25l-2.862 14.518h-4.46l1.287-6.616-4.086 5.31h-2.157l-2.24-5.227-1.307 6.533H82.86l2.904-14.518h3.982l3.152 7.716 6.077-7.716h4.169z" fill="#fff"/></svg>
